X: 1738
T: Sensizliğe Söylendi Bütün Şarkılar
C: İlgün Soysev
O: Turkey
F: http://compmusic.upf.edu/node/140
N: huseyni--sarki--aksak--sensizlige_soylendi--ilgun_soysev
N: makam= huseyni
N: form= sarki
N: usul= aksak = 9/8
M: 9/8
L: 1/16
K: C _2/4B ^3/4f  
Q: 1/4=192
%%MIDI tuningsystem comma53
A4 c2d2 e4 e4 d2 | d2 e2f2 g2a2 a2e4d2  | \
w:  ARANAĞME  |   | 
z4 f2g2 a2b2 c'2b2 a2 | 
w:   | 
g4f2 a2e4e4d2  | =f2e2 d2c2 d4 d4 c2 | \
w:   |   | 
d2 c2d2 B2c4c4z2  | z4 B2c2 d2e2 =f2e2 d2 | 
w:   |   | 
c4B2 d2A4A4G2  | A4 c2d2 e4 e4 d2 | d2 e2f2 g2a2 a2e4d2  | \
w:   |  ARANAĞME  |   | 
z4 f2g2 a2b2 c'2b2 a2 | 
w:   | 
g4f2 a2e4e4d2  | =f2e2 d2c2 d4 d4 c2 | \
w:   |   | 
d2 c2d2 B2c4c4z2  | z4 B2c2 d2e2 =f2e2 d2 | 
w:   |   | 
c4B2 d2A4A4z2  | d4 c4 d2e2 c2d2 e2 | \
w:   |  Sen siz li ğe  SAZ  | 
g4g2 f2e4f2 e2d2  | d2e4d2 e2d2 e4 f2 | 
w:  söy len *  di  SAZ  |  bü tün  *  şar *  *  kı  | 
g16z2  | g4 g4 g2g2 f2g2 a2 | z2 a4 a2e8d2  | \
w:  lar    |  Yok sun  di ye  SAZ  |  ağ la yıp   | 
z2e4e2 e4 d2c2 B2 | 
w:  es ti  rüz gâr  | 
c8c2 B2A4z2  | d4 c4 d2e2 c2d2 e2 | g4g2 f2e4f2 e2d2  | \
w:  lar   SAZ  |  Sen siz li ğe  SAZ  |  söy len *  di  SAZ  | 
d2e4d2 e2d2 e4 f2 | 
w:  bü tün  *  şar *  *  kı  | 
g16z2  | g4 g4 g2g2 f2g2 a2 | z2 a4 a2e8d2  | \
w:  lar    |  Yok sun  di ye  SAZ  |  ağ la yıp   | 
z2e4e2 e4 d2c2 B2 | 
w:  es ti  rüz gâr  | 
c8c2 d2e4z2  | z4 d2e2 e4 e4 z2 | =f2 e2d2 c2d8z2  | \
w:  lar   SAZ  |  Ne re de  o   |  sev *  *  gi ler   | 
d2d4d2 c2B2 A4 B2 | 
w:  o  mut lu luk  | 
c8c2 B2c4z2  | z2c4B2 A4 B2A2 G2 | c2 c4 c2B2 c2A4G2  | \
w:  lar   SAZ  |  Öz le dim  SAZ  |  çok_ öz le dim   | 
d4 d2B2 c4 d2B2 A2 | 
w:  gel  yağ *  mur  göz  | 
A8c2 d2e4z2  | z4 d2e2 e4 e4 z2 | =f2 e2d2 c2d8z2  | \
w:  lüm   SAZ  |  Ne re de  o   |  sev *  *  gi ler   | 
d2d4d2 c2B2 A4 B2 | 
w:  o  mut lu luk  | 
c8c2 B2c4z2  | z2c4B2 A4 B2A2 G2 | c2 c4 c2B2 c2A4G2  | \
w:  lar   SAZ  |  Öz le dim  SAZ  |  çok_ öz le dim   | 
d4 d2B2 c4 d2B2 A2 | 
w:  gel  yağ *  mur  göz  | 
A8B2 c2A4z2  | A4 c2d2 e4 e4 d2 | d2 e2f2 g2a2 a2e4d2  | \
w:  lüm   SAZ  |  SAZ  |   | 
z4 f2g2 a2b2 c'2b2 a2 | 
w:   | 
g4f2 a2e4e4d2  | =f2e2 d2c2 d4 d4 c2 | \
w:   |   | 
d2 c2d2 B2c4c4z2  | z4 B2c2 d2e2 =f2e2 d2 | 
w:   |   | 
z4f2 g2a2 b2c'2 b2a2  | f4 g4 a2a8 | \
w:   |  Bir  gün  bi ter   | 
c'2 c'4 b2a8z2  | f2g4a2 a4 g2f2 e2 | 
w:  di yor *  lar   |  bu  ay rı lık  | 
d8c2 B2A4z2  | z2f4g2 a4 a6 | c'6 b2a8z2  | \
w:  lar   SAZ  |  Kaç  ba har dır   |  bek le rim   | 
z4 f2g2 a4 g2f2 e2 | 
w:  ge çi yor  yıl  | 
e8c2 d2e4z2  | z2d4e2 e2e6 d2 | =f2 e2d2 c2d8z2  | \
w:  lar   SAZ  |  Kir pi ği min   |  u cun *  *  dan   | 
z2c4d2 c2B2 A4 B2 | 
w:  düş tü  dam *  *  la  | 
c8A2 B2c4z2  | z2c4B2 A4 B2A2 G2 | c2 c4 c2B2 c2A4G2  | \
w:  lar   SAZ  |  Öz le dim  SAZ  |  çok_ öz le dim   | 
d4 d2B2 c4 d2B2 A2 | 
w:  gel  yağ *  mur  göz  | 
A8c2 d2e4z2  | z4 d2e2 e4 e4 z2 | =f2 e2d2 c2d8z2  | \
w:  lüm   SAZ  |  Ne re de  o   |  sev *  *  gi ler   | 
d2d4d2 c2B2 A4 B2 | 
w:  o  mut lu luk  | 
c8c2 B2c4z2  | z2c4B2 A4 B2A2 G2 | c2 c4 c2B2 c2A4G2  | \
w:  lar   SAZ  |  Öz le dim  SAZ  |  çok_ öz le dim   | 
d4 d2B2 c4 d2B2 A2 | 
w:  gel  yağ *  mur  göz  | 
A8c2 d2e4z2  | z4 d2e2 e4 e4 z2 | =f2 e2d2 c2d8z2  | \
w:  lüm   SAZ  |  Ne re de  o   |  sev *  *  gi ler   | 
d2d4d2 c2B2 A4 B2 | 
w:  o  mut lu luk  | 
c8c2 B2c4z2  | z2c4B2 A4 B2A2 G2 | c2 c4 c2B2 c2A4G2  | \
w:  lar   SAZ  |  Öz le dim  SAZ  |  çok_ öz le dim   | 
d4 d2B2 c4 d2B2 A2 | 
w:  gel  yağ *  mur  göz  | 
A8B2 c2A4z2  | |


